X:71
T:Fairies' Hornpipe, The
R:hornpipe
S:Seamus Ennis
I:speed 300
E:7
M:C|
K:G
DE|GFGA BdcB|AGAB G2Bc|dgfg edcB|cedB A2Bc|\
dggf g2fe|dedc B2AG|AB(3cBA dcAF|G2GF G2:|*
Bc|dggf g2fe|dedc B2AG|AB (3cBA edcB|Add^c d2B=c|\
dggf g2fe|dedc B2AG|AB (3cBA dcAF|G2GF G2:|**
%%%%%%%%%%%%%%%%%%%%%%%%%%%%%%%%%%%%%%%%%%%%%%%%%%%%%%%%%%%%%%%%%%%%%%
%%%%%%%%%%%%%%%%%%%  POLKAS, MARCHES AND  OTHERS %%%%%%%%%%%%%%%%%%%%%
%%%%%%%%%%%%%%%%%%%%%%%%%%%%%%%%%%%%%%%%%%%%%%%%%%%%%%%%%%%%%%%%%%%%%%
